X:48
T:Walker Street
M:2/2
L:1/8
K:G
D2|"G"G2 BG dGBG|"C"ABcd cBAG|"G"Bdgd egdB|"D"cBAG FADF|
"G"G2 BG dGBG|"C"ABcd cBAG|"G"Bdgd egdB|"D"cAFA "G"G2:|:ef|
"G"g2 dg Bgdg|gabg agef|g2 dg BgdB|"D"cBAG FA A2|
"G"g2 dg Bgdg|gabg agef|"C" ~g3 a gfed|"D"egfa "G"g2:|
